!!!COM:      Bach, Johann Sebastian
!!!CDT:      1685/03/31/-1750/07/28/
!!!OPR@@GER: Das wohltemperirte Clavier
!!!OVM@@GER: Band I
!!!OPR@ENG:  Well-Tempered Clavier
!!!OVM@ENG:  Book I
!!!OTL:      Prelude
!!!OKY:      G major
!!!ONM:      no. 15
!!!SCT:      BWV 860
!!!OMV:      1
**kern	**kern
*clefF4	*clefG2
*k[f#]	*k[f#]
*G:	*G:
*M24/16	*M24/16
*MM70	*MM70
=1-	=1-
8.G	16g
.	16b
.	16dd
8.GG	16gg
.	16dd
.	16b
8.r	16dd
.	16b
.	16g
8.G	16b
.	16g
.	16d
8.G	16e
.	16g
.	16cc
8.GG	16ee
.	16cc
.	16g
8.r	16cc
.	16g
.	16e
8.G	16g
.	16e
.	16c
=2	=2
8.G	16A
.	16c
.	16f#
8.GG	16a
.	16f#
.	16c
8.r	16f#
.	16c
.	16A
8.G	16c
.	16A
.	16F#
8.G	16G
.	16B
.	16d
8.GG	16g
.	16d
.	16B
8.r	16d
.	16B
.	16G
8.G	16B
.	16G
.	16E
=3	=3
8.G	16A
.	16c#
.	16e
8.GG	16a
.	16e
.	16c#
8.r	16e
.	16c#
.	16A
8.G	16c#
.	16A
.	16E
16F#	8.d
16A	.
16c#	.
16d	8.r
16A	.
16F#	.
16A	8.r
16F#	.
16D	.
16F#	8.d
16D	.
16BB	.
=4	=4
8.E	16d
.	16c#
.	16d
8.EE	16e
.	16c#
.	16d
8.r	16f#
.	16c#
.	16d
8.E	16g
.	16c#
.	16d
8.C#	16a
.	16c#
.	16d
8.AA	16b
.	16c#
.	16d
8.BB	16a
.	16c#
.	16d
8.C#	16g
.	16c#
.	16d
=5	=5
16D	8.f#
16c#	.
16d	.
16E	8.g
16c#	.
16d	.
16F#	8.a
16c#	.
16d	.
16G	8.b
16c#	.
16d	.
16F#	8.a
16c#	.
16d	.
16E	8.g
16c#	.
16d	.
16D	8.f#
16c#	.
16d	.
16F#	8.a
16c#	.
16d	.
=6	=6
8.BB	16g#
.	16b
.	16dd
8.B	16ffn
.	16dd
.	16b
8.r	16dd
.	16b
.	16g#
8.A	16b
.	16g#
.	16e
8.G#	16d
.	16fn
.	16g#X
8.GG#X	16b
.	16g#
.	16f
8.r	16g#
.	16f
.	16d
8.G#	16f
.	16d
.	16B
=7	=7
16A	8.c
16c	.
16e	.
16a	8.ee
16e	.
16c	.
16e	8.cc
16c	.
16A	.
16c	8.a
16A	.
16E	.
16C	8.e
16E	.
16A	.
16c	8.ee
16A	.
16E	.
16A	8.cc
16E	.
16C	.
16E	8.a
16C	.
16AA	.
=8	=8
8.FF#	16dd#
.	16ff#
.	16aa
8.F#	16ccc
.	16aa
.	16ff#
8.r	16aa
.	16ff#
.	16dd#
8.E	16ff#
.	16dd#
.	16b
8.D#	16a
.	16ccn
.	16dd#X
8.DD#X	16ff#
.	16dd#
.	16cc
8.r	16dd#
.	16cc
.	16a
8.D#	16cc
.	16a
.	16f#
=9	=9
16E	8.g
16d#	.
16e	.
16F#	8.a
16d#	.
16e	.
16G	8.b
16d#	.
16e	.
16A	8.cc
16d#	.
16e	.
16G	8.b
16d#	.
16e	.
16F#	8.a
16d#	.
16e	.
16E	8.g
16d#	.
16e	.
16G	8.b
16d#	.
16e	.
=10	=10
8.C#	16a
.	16g#
.	16a
8.D	16b
.	16g#
.	16a
8.E	16cc#
.	16g#
.	16a
8.F#	16dd
.	16g#
.	16a
8.C#X	16ee
.	16g#
.	16a
8.BB	16ff#
.	16g#
.	16a
8.AA	16ggn
.	16ee
.	16cc#X
8.C#	16a
.	16cc#
.	16ee
=11	=11
16D	8.ff#
16F#	.
16A	.
16d	8.r
16A	.
16F#	.
8.D	16aa
.	16ff#
.	16dd
8.d	16ccn
.	16dd
.	16ff#
16D	8.aa
16G	.
16B	.
16d	8.gg
16B	.
16G	.
8.D	16gg
.	16ee
.	16cc#
8.d	16a
.	16cc#
.	16ee
=12	=12
16D	8.gg
16A	.
16c#	.
16d	8.ff#
16A	.
16F#	.
8.D	16ff#
.	16dd
.	16b
8.d	16g
.	16b
.	16dd
16D	8.ff#
16E	.
16G	.
16B	8.ee
16G	.
16E	.
8.D	16ee
.	16cc#
.	16a
8.d	16g
.	16a
.	16cc#
=13	=13
16D	8.ee
16F#	.
16A	.
16d	8.dd
16A	.
16F#	.
16A	8.r
16F#	.
16D	.
16F#	8.dd
16D	.
16Cn	.
16BB	16dd
16D	16cc
16F#	16b
16G	16b
16D	16a
16BB	16g
16D	16g
16BB	16b
16GG	16dd
16BB	16ffn
16GG	16ee
16FFn	16dd
=14	=14
16EE	16dd
16GG	16ee
16BB	16ffn
16C	8.ee
16E	.
16G	.
16c	8.r
16G	.
16E	.
16G	8.ee
16E	.
16D	.
16C#	16ee
16E	16dd
16G	16cc#
16A	16cc#
16E	16b
16C#	16a
16E	16a
16C#	16cc#
16AA	16ee
16C#	16gg
16AA	16ff#
16GG	16ee
=15	=15
16FF#	16ee
16AA	16ff#
16C#	16gg
16D	8.ff#
16F#	.
16A	.
16d	8.r
16A	.
16F#	.
16A	8.aa
16F#	.
16D	.
16F#	16aa
16D	16gg
16AA	16ff#
16D	16ff#
16AA	16ee
16FF#	16dd
8.DD	16dd
.	16ff#
.	16aa
8.D	16ccc
.	16bb
.	16aa
=16	=16
[8.GG	16aa
.	16bb
.	16ccc
16GG]	[8.bb
16BB	.
16D	.
16G	16bb]
16A	16aa
16B	16gg
16B	16ffn
16c	16ee
16d	16dd
8.e	16cc
.	16ee
.	16gg
16c	16aa
16A	16ff#
16F#	16dd
8.d	16b
.	16dd
.	16ff#
16B	16gg
16G	16ee
16E	16cc
=17	=17
8.c	16a
.	16cc
.	16ee
16A	16ff#
16F#	16dd
16D	16b
8.B	16g
.	16b
.	16dd
16G	16ee
16E	16cc
16C	16a
8.A	16f#
.	16a
.	16cc
16F#	16dd
16D	16b
16BB	16g
8.G	16e
.	16g
.	16b
16E	16cc
16C	16a
16AA	16f#
=18	=18
8.F#	16d
.	16f#
.	16a
16D	16b
16BB	16g
16GG	16e
16E	16c
16C	16e
16AA	16g
16F#	16a
16D	16f#
16BB	16d
8.G	16B
.	16d
.	16f#
8.E	16g
.	16e
.	16c
8.C	16A
.	16c
.	16e
8.D	16f#
.	16d
.	16c
=19	=19
1.GG	1.B;y 1.d;y 1.g;
==	==
*-	*-
!!!AFR:  prelude
!!!EFL:  29/96
!!!END:  1994/01/15/
!!!VID:  3932155026 Bach, BWV 860-01
!!!AST:  Baroque
!!!OCY:  Deutschland
!!!ODT:  1722///
!!!PDT:  1801///
!!!EED:  Walter Hewlett
!!!ENC:  Walter Hewlett
!!!YOR:  Bach Gesellschaft Edition xiv
!!!AFT:  enhanced SCORE
!!!RDT:  2011/10/07/ by Andreas Kornstaedt using massScr2hmd
!!!SCA1: Thematisch-systematisches Verzeichnis der musikalischen Werke 
!!!SCA2: Johann Sebastian Bach: Bach-Werke-Verzeichnis (Schmieder)
!!!YEC1: Copyright 1994, 2000 Center for Computer Assisted Research 
!!!YEC2: in the Humanities
!!!YEM1: Rights to all derivative editions reserved.
!!!YEM2: Refer to licensing agreement for further details.
!!!YEN:  United States of America
!!!ref:  @{OTL}, @{SCT}
!!muse2ps: T^@{OTL} @{ONM} in @{OKY}^C^J.S. Bach\n@{SCT}-@{OMV}^
!!muse2ps: u^@{OPR@ENG}, @{OVM@ENG}^j
